X:1
T:Main Yahaan Hoon Piano Cover
T:Main Yahaan Hoon Piano Cover
%%score { 1 | 2 }
L:1/8
Q:1/4=67
M:4/4
K:G
V:1 treble nm="Piano"
V:2 bass 
V:1
 z4 a4- | a8- | a8- | a4 [DEG]4- | [DEG]3- [DEG]/ z2 z b3/2 | EBeg bf'f'[Eg'] | %6
 Be3/2g3/2 bf'e'[De'f'] | [Af']df[ad'] d'[Dd'f']Ad | fabb EBeg | bd'^c'[Ddd'] A d2 a | %10
 c'3/2b3/2[Ccc'] Gceg | e'3/2a3/2[Eb] Be3/2g3/2 | b4- b>[Bc] d/e/f/g/ | [EBf]e/f b4- b3/2 | %14
 E/ge/ e/d/ e2 B de/f/ | ge<fb/ f4- f/ | E/g/f/e/ fd<efab | [DFAd]/d'/b<ad' b4 | %18
 [DFAd]/d'aa/f<aBde | [Ef]/g/f e/fb3/2 f3- | f2 gf<[ef]ede- | e8 | z2 z E3 G2 | z2 z E3 G2 | %24
 z2 z E3 G2 | z2 z E3 [GB]2 | e2 z E2 fGf | g2 z E2 fGe | f2 z D2 dFd | f2 z D2 BFB | %30
 e2 z E2 dG^c | d2 z z/ D3/2cFB | z/ c3/2 z [Cc]2 eEA | B2 z E<BBGB | e2 z E2 f[Gg]f | %35
 z g z E2 f[EG]e | f2 z D2 dFd | f2 z [Df]2 BFB | [Ee]2 z E2 dG^c | d2 z D2 cFB | c2 z C2 eEA | %41
 B2 z [EB]2 BGB | Be z E2 f[EG]a | [Ea]g z E2 fGe | f2 f D2 dFd | f2 z D<fBFB | e2 z E2 dG^c | %47
 d2 z D2 cFB | [Cc]2 z C2 eEA | B2 z E/ B2- B/ G<e | eef[Ee] ee[Ef]e | [Ee]ef[Ee] ee z2 | %52
 Bgf[EB] fe[EB]e | d[EB]ed c2 [EB]2 | B2 B [Ee]2 e[Ee]d | def[Ee] dB[EB]d | B2 B e2 e[Ee]d | %57
 def[Ee] dB B2 | [DB]2 B f2 f z e | de ef<ef z e | d2 d[Ee] e2 e2 | B2 B f2 f z e | %62
 de e[Af]/ z z/ f z e | d2 d[Ee] e2 e2 | e4- e A2- A/A/ | B3 B2 B z B | B3 B2 B z B | %67
 cBA [CAc]2 BCA | G2 F C2 FCF | A3 A2 A z A | B3 [DB]2 A z G | F2 F A2 G z F | E6- E>f' | %73
 g'f' a'2 g'2 f'e'- | e'3 f'4 f' | g'f' a'2 g'2 f'g | fedc BAGB- | B2 B2 B z BB- | BB [EB]2 BBBc | %79
 BA [Cc]2 BCA[Gg]- | [Gg]F C2 FCF z | A2 A2 A z A z | B2 B2 A3/2 z/ GF- | FF A2 G z F>E- | %84
 E4- E z2 z | E3 z2 F z F | G3 z2 F z E | F2 F z2 D z D | F3 F2 z2 z | E3 z2 D z ^C | D3 z2 C z2 | %91
 C3 z2 E z2 | z4 z2 E z | E3 z2 F z F | G2 G [EG]2 F z E | F3 z2 D z D | F3 F/ z4 z/ | %97
 E3 z2 D z ^C | D3 z2 C z2 | C3 z2 E z2 | z4 z2 z z/ E/- | E2 z2 F z AA | G2 z2 F z EF- | %103
 FF z2 D3/2 z/ DF- | F2 F2 z2 z z/ E/- | E2 z2 D z ^C>D- | D2- D/ z2 C3/2 z2 | C3 z2 E z2 | z8 | %109
 z4 z C z C | DC D^D/ z/ =D^D =F/ z/ G | G3 z2 A z A | [^AB]3 z2 =A z G | A2 A z2 =F F/FA/- | %114
 A2 A2 D z DG- | G2 z2 =F z EF- | F2 =F/ z z/ ^D z [=Dd]^D- | D2 z2 G z C=D- | DD D2 D z DD | %119
 G2 z2 A z A^A- | A2 z2 =A z GA- | AA =F2 FFFA- | AA [=FA]2 [Dd]FDG- | G2 z2 =F z E>[Fa']- | %124
 [Fa']2 =F2 ^D z =D^D- | D2 z2 G^D C2 | [Dd] z2 z DG^Ad- | d^ad'3/2 g'2- g'/ ^a'2- | a'2 D6- | %129
 D8- | D8 | %131
V:2
 z8 | z8 | z8 | z4 [G,B,]4- | [G,B,]3- [G,B,]<[G,,,^C,,]G,,,3/2D,3/2 | z8 | z8 | z8 | z8 | z8 | %10
 z4 z2 D,, z | z8 | z8 | [E,G,B,] z4 z2 z | [E,G,B,]/ z4 z2 z z/ | [E,G,B,] z4 z2 z | %16
 [E,G,B,]/ z4 z2 z z/ | [D,A,]/ z4 z2 z z/ | [D,A,]/ z4 z2 z z/ | [E,G,B,]/ z4 z2 z z/ | %20
 z2 [E,G,B,] z4 z | z8 | E,2 B, z4 z | E,2 B, z4 z | E,2 B, z4 z | E,2 B, z4 z | E,2 B, z4 z | %27
 E,2 B, z4 z | D,2 A, z4 z | D,2 A, z4 z | E,2 B, z4 z | D,2 A,3/2 z4 z/ | C,/ z z/ G, z4 z | %33
 E,2 B, z4 z | E,2 B, z4 z | E, z B, z4 z | D,2 A, z4 z | D,2 A, z4 z | E,2 B, z4 z | D,2 A, z4 z | %40
 C,2 G, z4 z | E,2 B, z4 z | E, z B, z4 z | E, z B, z4 z | D,2 A, z4 z | D,2 A, z4 z | %46
 E,2 B, z4 z | D,2 A, z4 z | C,2 G, z4 z | E,2 B, z4 z | [E,,^D,] z2 [E,,E,] z2 [E,,E,] z | %51
 [E,,E,] z2 [E,,E,] z2 [E,,E,B,]2 | E,, z2 E, z2 [E,,E,] z | z [E,,E,] z2 [E,,B,,E,]2 [B,,E,]2 | %54
 E,,2 z [E,G,B,]2 z [E,G,B,] z | E,, z2 [E,G,B,] z2 [E,G,B,] z | [E,,E,]2 z [E,G,B,]2 z [G,B,] z | %57
 E,, z2 [E,G,B,] z2 [G,B,]2 | D,,2 z [D,F,A,]2 z [D,A,] z | D,, z2 z/ [D,F,A,]3/2 z [D,A,] z | %60
 E,,2 z [E,G,B,] z2 [E,G,B,]2 | D,,2 z [D,F,A,]2 z [D,A,] z | D,, z2 A,<[D,F,] z [D,A,] z | %63
 E,,2 z [E,G,B,] z2 [E,G,B,]2 | E,,4- E,, z2 z | E,,3 [E,G,B,]2 z [E,B,] z | %66
 E,,3 [E,G,B,]2 z [E,G,B,] z | A,, z2 A,2 z A, z | A,,2 z A,2 z A, z | D,,3 [F,A,]2 z [D,A,] z | %70
 [B,,,B,]3 [B,,F,B,]2 z [B,,D,] z | C,,2 z [E,G,]2 z G, z | E,,6- E,,3/2 z/ | z8 | z8 | z8 | %76
 z4 z2 z [^D,,E,,^D,]- | [D,,E,,D,]2 [E,G,B,]2 z E,/[G,B,]/ z E,,- | %78
 E,, z [E,G,B,]2 z [E,G,B,] z A,, | z2 A,2 z A, z A,,- | A,, z A,2 z A, z D,, | %81
 z2 [D,F,A,]2 z [D,A,] z B,,, | z2 [B,,D,F,]2 z z/ [B,,D,F,]/ z C,,- | %83
 C,, z [C,E,G,]2 z [C,G,] z z/ E,,,/- | E,,,4- E,,, B,2 B, | E,,3 [E,G,B,]2 z [E,G,] z | %86
 E,,3 [E,G,B,]2 z E, z | D,,2 z [D,F,A,]2 z [D,A,] z | [D,,D,]3 [D,F,A,]2 B,D,B, | %89
 E,,3 [E,G,B,]2 z [E,G,] z | [D,,D,]3 [D,F,A,]2 z [D,A,]B, | C,,3 [E,G,]2 z G,A, | %92
 [E,,B,]2 B, [E,G,B,]2 B,[E,G,]B, | E,,3 [E,G,B,]2 z [E,G,B,] z | E,,2 z [E,G,B,]2 z [E,G,] z | %95
 D,,3 [D,F,A,]2 z [D,A,] z | D,,3 A,<[D,F,]B,D,B, | E,,3 [E,G,B,]2 z [E,G,] z | %98
 D,,3 [D,F,A,]2 z D,B, | C,,3 [C,E,G,]2 z C,A, | [E,,B,]2 B,[E,G,] B,>B, [E,G,]>E,,- | %101
 E,,2 [E,G,B,]2 z [E,G,] z E,, | z2 [E,B,]2 z E,/G,/ z D,,- | D,, z [D,F,A,]2 z z/ [D,A,]/ z D,,- | %104
 D,,2 [D,A,]2 B,D, B,E,,/ z/ | z2 [E,G,B,]2 z [E,G,] z z/ D,,/- | %106
 D,,2- D,,/ [D,F,A,]2 z z/ [D,A,]B, | C,,3 [C,E,G,]2 z G,A, | [E,,B,]2 B, [E,G,B,]2 B, [E,G,B,]2 | %109
 G,/G,,/A, ^A,=A,/[G,,D,]/ ^A, z [G,A,]/[G,,D,]/ z | [G,,G,] z2 z/ [G,,D,G,]/ z2 G,/D,/ z | %111
 G,,3 G,<D, z G, z | G,,3 G,<D, z [G,,G,] z | =F,,2 z =F,2 z [F,,F,]/ z F,,/- | %114
 F,,2 =F,,2 z =F, z G,,- | G,,2 [D,G,]2 z [G,,G,]/D,/ z [=F,,=F,]- | %116
 [F,,F,]2 =F,<C, z [C,F,] z ^D,,- | D,,2 ^D,2 z D, z [G,,G,]- | [G,,G,] z G,2 z G, z G,, | %119
 z2 G,<D, z [D,G,] z G,,- | G,,2 G,<D, z G,/D,/ z =F,,- | F,, z [=F,,=F,]2 z [F,,F,] z [F,,F,]- | %122
 [F,,F,] z [=F,,=F,]2 z F, z [G,,G,]- | [G,,G,]2 [G,,G,]2 z [G,,G,] z z/ =F,,/- | %124
 F,,2 [=F,,=F,]2 z F, z ^D,,- | D,,2 ^D,2 z D, z2 | [G,,G,]D,G,^A, z4 | z8 | z2 G,6- | G,8- | G,8 | %131

